public/icons/blog__icon.svg

<svg width="21" height="17" viewBox="0 0 21 17" fill="none" xmlns="http://www.w3.org/2000/svg">
    <path
        d="M7.58419 4H4.29541C3.17531 4 2.61484 4 2.18701 4.21799C1.81069 4.40973 1.50495 4.71547 1.3132 5.0918C1.09521 5.51962 1.09521 6.08009 1.09521 7.2002V12.8002C1.09521 13.9203 1.09521 14.4796 1.3132 14.9074C1.50495 15.2837 1.81069 15.5905 2.18701 15.7822C2.61442 16 3.17421 16 4.29212 16H15.8983C17.0162 16 17.5752 16 18.0026 15.7822C18.3789 15.5905 18.6857 15.2837 18.8774 14.9074C19.0952 14.48 19.0952 13.921 19.0952 12.8031V7.19691C19.0952 6.07899 19.0952 5.5192 18.8774 5.0918C18.6857 4.71547 18.3789 4.40973 18.0026 4.21799C17.5748 4 17.0155 4 15.8954 4H12.606M7.58419 4H7.646M7.58419 4C7.59672 4.00001 7.6099 4 7.62378 4L7.646 4M7.58419 4C7.47807 3.99995 7.41861 3.99941 7.37158 3.99414C6.784 3.92835 6.381 3.36908 6.50439 2.79084C6.51588 2.73703 6.53857 2.66894 6.58352 2.53412L6.58545 2.52841C6.63678 2.37443 6.66244 2.29743 6.6908 2.22949C6.98108 1.53389 7.63843 1.06083 8.39014 1.00541C8.46356 1 8.54423 1 8.70654 1H11.4838C11.6461 1 11.7274 1 11.8009 1.00541C12.5526 1.06083 13.2092 1.53389 13.4995 2.22949C13.5279 2.29743 13.5537 2.37434 13.605 2.52832C13.6512 2.66699 13.6743 2.73636 13.686 2.79093C13.8094 3.36917 13.407 3.92835 12.8194 3.99414C12.7724 3.99941 12.7123 3.99995 12.606 4M7.646 4H12.5442M12.5442 4H12.606M12.5442 4L12.5664 4C12.5803 4 12.5935 4.00001 12.606 4M10.0952 13C8.43836 13 7.09521 11.6569 7.09521 10C7.09521 8.34315 8.43836 7 10.0952 7C11.7521 7 13.0952 8.34315 13.0952 10C13.0952 11.6569 11.7521 13 10.0952 13Z"
        stroke="#656267" strokeWidth="2" strokeLinecap="round" strokeLinejoin="round" />
</svg>

<svg xmlns="http://www.w3.org/2000/svg" width="21" height="17" fill="none"><path stroke="#656267" d="M7.584 4H4.295c-1.12 0-1.68 0-2.108.218a1.999 1.999 0 0 0-.874.874c-.218.428-.218.988-.218 2.108v5.6c0 1.12 0 1.68.218 2.107.192.377.498.684.874.875.427.218.987.218 2.105.218h11.606c1.118 0 1.677 0 2.105-.218.376-.191.683-.498.874-.875.218-.427.218-.986.218-2.104V7.197c0-1.118 0-1.678-.218-2.105a2.001 2.001 0 0 0-.874-.874C17.575 4 17.015 4 15.895 4h-3.289M7.584 4h.062m-.062 0h.062m-.062 0c-.106 0-.165 0-.212-.006a1.001 1.001 0 0 1-.868-1.203 2.79 2.79 0 0 1 .08-.257l.001-.006c.052-.154.077-.23.106-.299a2 2 0 0 1 1.7-1.224C8.463 1 8.543 1 8.706 1h2.777c.162 0 .243 0 .317.005a2 2 0 0 1 1.698 1.224c.029.068.055.145.106.3.046.138.07.207.081.262a1 1 0 0 1-.867 1.203 2.125 2.125 0 0 1-.213.006m-4.96 0h4.898m0 0h.062m-.062 0h.062m-2.51 9a3 3 0 1 1 0-6 3 3 0 0 1 0 6Z"/></svg>
